img/faqs/complaints-icon.svg

<?xml version="1.0" encoding="UTF-8"?>
<svg width="77px" height="81px" viewBox="0 0 77 81" version="1.1" xmlns="http://www.w3.org/2000/svg" xmlns:xlink="http://www.w3.org/1999/xlink">
    <!-- Generator: Sketch 51.3 (57544) - http://www.bohemiancoding.com/sketch -->
    <title>complaints-icon</title>
    <desc>Created with Sketch.</desc>
    <defs>
        <polygon id="path-1" points="0.0002 0.0001 76.949 0.0001 76.949 80.6609 0.0002 80.6609"></polygon>
    </defs>
    <g id="FAQs-&amp;-Account" stroke="none" stroke-width="1" fill="none" fill-rule="evenodd">
        <g id="TT-FAQs" transform="translate(-528.000000, -1376.000000)">
            <g id="complaints-icon" transform="translate(528.000000, 1376.000000)">
                <mask id="mask-2" fill="white">
                    <use xlink:href="#path-1"></use>
                </mask>
                <g id="Clip-2"></g>
                <path d="M38.7912,74.7671 L52.6492,48.1021 L52.6492,4.3261 L23.5552,4.3261 C18.2612,4.3261 13.4542,6.4861 9.9712,9.9711 C6.4872,13.4541 4.3262,18.2611 4.3262,23.5551 L4.3262,43.5511 C4.3262,44.3171 4.6212,45.0111 5.0982,45.5271 L5.1832,45.6091 C5.7112,46.1371 6.4382,46.4661 7.2422,46.4661 L32.4792,46.4661 L32.4792,46.4691 C32.5782,46.4691 32.6762,46.4761 32.7742,46.4931 C33.9572,46.6531 34.7792,47.7441 34.6192,48.9241 L31.2862,73.0241 C31.2242,73.4641 31.2532,73.8811 31.3682,74.2601 C31.4682,74.6081 31.6452,74.9371 31.8922,75.2411 L31.9812,75.3391 C32.2562,75.6551 32.5592,75.8961 32.8802,76.0561 L32.9552,76.0911 C33.3122,76.2521 33.7242,76.3361 34.1752,76.3361 L36.2032,76.3361 C36.7852,76.3361 37.3032,76.1961 37.7342,75.9361 C38.1582,75.6771 38.5212,75.2791 38.7912,74.7671 Z M56.1342,50.7711 L42.6262,76.7621 C41.9972,77.9701 41.0802,78.9411 39.9632,79.6211 C38.8472,80.2981 37.5672,80.6611 36.2032,80.6611 L34.1752,80.6611 C33.1102,80.6611 32.1042,80.4481 31.1802,80.0261 L31.0292,79.9531 C30.1552,79.5321 29.3812,78.9381 28.7192,78.1751 L28.6032,78.0311 C27.9572,77.2541 27.4962,76.4061 27.2282,75.4951 C26.9362,74.5261 26.8632,73.4961 27.0102,72.4321 L30.0042,50.7901 L7.2422,50.7901 C5.2462,50.7901 3.4342,49.9781 2.1252,48.6671 L1.9992,48.5281 C0.7622,47.2261 0.0002,45.4691 0.0002,43.5511 L0.0002,23.5551 C0.0002,17.0691 2.6462,11.1761 6.9132,6.9131 C11.1792,2.6431 17.0682,0.0001 23.5552,0.0001 L54.8132,0.0001 C54.9162,0.0001 55.0182,0.0061 55.1202,0.0211 L74.7862,0.0211 C75.9802,0.0211 76.9492,0.9801 76.9492,2.1631 L76.9492,48.6261 C76.9492,49.8091 75.9802,50.7711 74.7862,50.7711 L56.1342,50.7711 Z M66.9612,15.9931 C66.9612,17.1771 65.9932,18.1341 64.8002,18.1341 C63.6052,18.1341 62.6372,17.1771 62.6372,15.9931 L62.6372,10.9801 C62.6372,9.8011 63.6052,8.8391 64.8002,8.8391 C65.9932,8.8391 66.9612,9.8011 66.9612,10.9801 L66.9612,15.9931 Z M56.9762,46.4851 L72.6222,46.4851 L72.6222,4.3051 L56.9762,4.3051 L56.9762,46.4851 Z" id="Fill-1" fill="#FF5721" mask="url(#mask-2)"></path>
            </g>
        </g>
    </g>
</svg>

<svg height="81" viewBox="0 0 77 81" width="77" xmlns="http://www.w3.org/2000/svg" xmlns:xlink="http://www.w3.org/1999/xlink"><mask id="a" fill="#fff"><path d="m.0002.0001h76.9488v80.6608h-76.9488z" fill="#fff" fill-rule="evenodd"/></mask><path d="m38.7912 74.7671 13.858-26.665v-43.776h-29.094c-5.294 0-10.101 2.16-13.584 5.645-3.484 3.483-5.645 8.29-5.645 13.584v19.996c0 .766.295 1.46.772 1.976l.085.082c.528.528 1.255.857 2.059.857h25.237v.003c.099 0 .197.007.295.024 1.183.16 2.005 1.251 1.845 2.431l-3.333 24.1c-.062.44-.033.857.082 1.236.1.348.277.677.524.981l.089.098c.275.316.578.557.899.717l.075.035c.357.161.769.245 1.22.245h2.028c.582 0 1.1-.14 1.531-.4.424-.259.787-.657 1.057-1.169zm17.343-23.996-13.508 25.991c-.629 1.208-1.546 2.179-2.663 2.859-1.116.677-2.396 1.04-3.76 1.04h-2.028c-1.065 0-2.071-.213-2.995-.635l-.151-.073c-.874-.421-1.648-1.015-2.31-1.778l-.116-.144c-.646-.777-1.107-1.625-1.375-2.536-.292-.969-.365-1.999-.218-3.063l2.994-21.642h-22.762c-1.996 0-3.808-.812-5.117-2.123l-.126-.139c-1.237-1.302-1.999-3.059-1.999-4.977v-19.996c0-6.486 2.646-12.379 6.913-16.642 4.266-4.27 10.155-6.913 16.642-6.913h31.258c.103 0 .205.006.307.021h19.666c1.194 0 2.163.959 2.163 2.142v46.463c0 1.183-.969 2.145-2.163 2.145zm10.827-34.778c0 1.184-.968 2.141-2.161 2.141-1.195 0-2.163-.957-2.163-2.141v-5.013c0-1.179.968-2.141 2.163-2.141 1.193 0 2.161.962 2.161 2.141zm-9.985 30.492h15.646v-42.18h-15.646z" fill="#ff5721" fill-rule="evenodd" mask="url(#a)"/></svg>
